Newaita-dark/actions/16/compass.svg

<svg height="16" viewBox="0 0 16 16" width="16" xmlns="http://www.w3.org/2000/svg"><path d="m7.9375 1.449219c-3.664062 0-6.613281 2.949219-6.613281 6.613281s2.949219 6.617188 6.613281 6.617188 6.617188-2.953126 6.617188-6.617188-2.953126-6.613281-6.617188-6.613281zm0 1.320312c2.933594 0 5.292969 2.363281 5.292969 5.292969 0 2.933594-2.359375 5.292969-5.292969 5.292969-2.929688 0-5.292969-2.359375-5.292969-5.292969 0-2.929688 2.363281-5.292969 5.292969-5.292969zm0 0" fill="#e0e0e0"/><path d="m10.984375 5.015625c-.117187-.121094-.304687-.136719-.441406-.039063l-3.277344 2.339844c-.171875.121094-.191406.371094-.042969.519532l.9375.9375c.148438.148437.398438.128906.519532-.042969l2.339843-3.277344c.097657-.136719.082031-.320313-.035156-.4375zm0 0" fill="#42a5f5"/><path d="m4.894531 11.101562c-.121093-.117187-.136719-.304687-.039062-.441406l2.339843-3.273437c.125-.171875.371094-.195313.523438-.042969l.933594.933594c.148437.152344.128906.398437-.042969.523437l-3.273437 2.339844c-.136719.09375-.324219.078125-.441407-.039063zm0 0" fill="#f44336"/><path d="m7.9375 6.738281c.730469 0 1.324219.59375 1.324219 1.324219s-.59375 1.324219-1.324219 1.324219-1.324219-.59375-1.324219-1.324219.59375-1.324219 1.324219-1.324219zm0 0" fill="#e0e0e0"/></svg>

<?xml version="1.0" encoding="UTF-8"?>
<svg xmlns="http://www.w3.org/2000/svg" xmlns:xlink="http://www.w3.org/1999/xlink" width="16px" height="16px" viewBox="0 0 16 16" version="1.1">
<g id="surface1">
<path style=" stroke:none;fill-rule:nonzero;fill:rgb(87.843138%,87.843138%,87.843138%);fill-opacity:1;" d="M 7.9375 1.449219 C 4.273438 1.449219 1.324219 4.398438 1.324219 8.0625 C 1.324219 11.726562 4.273438 14.679688 7.9375 14.679688 C 11.601562 14.679688 14.554688 11.726562 14.554688 8.0625 C 14.554688 4.398438 11.601562 1.449219 7.9375 1.449219 Z M 7.9375 2.769531 C 10.871094 2.769531 13.230469 5.132812 13.230469 8.0625 C 13.230469 10.996094 10.871094 13.355469 7.9375 13.355469 C 5.007812 13.355469 2.644531 10.996094 2.644531 8.0625 C 2.644531 5.132812 5.007812 2.769531 7.9375 2.769531 Z M 7.9375 2.769531 "/>
<path style=" stroke:none;fill-rule:nonzero;fill:rgb(25.882354%,64.705884%,96.078432%);fill-opacity:1;" d="M 10.984375 5.015625 C 10.867188 4.894531 10.679688 4.878906 10.542969 4.976562 L 7.265625 7.316406 C 7.09375 7.4375 7.074219 7.6875 7.222656 7.835938 L 8.160156 8.773438 C 8.308594 8.921875 8.558594 8.902344 8.679688 8.730469 L 11.019531 5.453125 C 11.117188 5.316406 11.101562 5.132812 10.984375 5.015625 Z M 10.984375 5.015625 "/>
<path style=" stroke:none;fill-rule:nonzero;fill:rgb(95.686275%,26.274511%,21.176471%);fill-opacity:1;" d="M 4.894531 11.101562 C 4.773438 10.984375 4.757812 10.796875 4.855469 10.660156 L 7.195312 7.386719 C 7.320312 7.214844 7.566406 7.191406 7.71875 7.34375 L 8.652344 8.277344 C 8.800781 8.429688 8.78125 8.675781 8.609375 8.800781 L 5.335938 11.140625 C 5.199219 11.234375 5.011719 11.21875 4.894531 11.101562 Z M 4.894531 11.101562 "/>
<path style=" stroke:none;fill-rule:nonzero;fill:rgb(87.843138%,87.843138%,87.843138%);fill-opacity:1;" d="M 7.9375 6.738281 C 8.667969 6.738281 9.261719 7.332031 9.261719 8.0625 C 9.261719 8.792969 8.667969 9.386719 7.9375 9.386719 C 7.207031 9.386719 6.613281 8.792969 6.613281 8.0625 C 6.613281 7.332031 7.207031 6.738281 7.9375 6.738281 Z M 7.9375 6.738281 "/>
</g>
</svg>
